img/promo-smile.svg

<svg width="18" height="15" viewBox="0 0 18 15" fill="none" xmlns="http://www.w3.org/2000/svg">
<path d="M3.90857 7.5L0.34635 2.77032C0.0633477 2.39444 -0.0528742 1.9295 0.0223672 1.47424C0.0976086 1.01899 0.358386 0.609279 0.749316 0.332129C0.941186 0.197839 1.15973 0.101173 1.39201 0.0478598C1.62429 -0.00545352 1.86557 -0.0143308 2.10155 0.0217554C2.33754 0.0578417 2.56344 0.138157 2.76585 0.257942C2.96827 0.377726 3.14308 0.534544 3.27995 0.719103L3.89514 1.53857L4.51302 0.719103C4.64988 0.534544 4.8247 0.377726 5.02712 0.257942C5.22953 0.138157 5.45543 0.0578417 5.69141 0.0217554C5.9274 -0.0143308 6.16868 -0.00545352 6.40096 0.0478598C6.63323 0.101173 6.85178 0.197839 7.04365 0.332129C7.43458 0.609279 7.69536 1.01899 7.7706 1.47424C7.84584 1.9295 7.72962 2.39444 7.44662 2.77032L3.90857 7.5Z" fill="#F35A05"/>
<path d="M13.9281 7.5L10.3659 2.77032C10.0829 2.39444 9.96666 1.9295 10.0419 1.47424C10.1171 1.01899 10.3779 0.609279 10.7688 0.332129C10.9607 0.197839 11.1793 0.101173 11.4115 0.0478598C11.6438 -0.00545352 11.8851 -0.0143308 12.1211 0.0217554C12.3571 0.0578417 12.583 0.138157 12.7854 0.257942C12.9878 0.377726 13.1626 0.534544 13.2995 0.719103L13.9147 1.53857L14.5326 0.719103C14.6694 0.534544 14.8442 0.377726 15.0466 0.257942C15.2491 0.138157 15.475 0.0578417 15.7109 0.0217554C15.9469 -0.0143308 16.1882 -0.00545352 16.4205 0.0478598C16.6528 0.101173 16.8713 0.197839 17.0632 0.332129C17.4541 0.609279 17.7149 1.01899 17.7901 1.47424C17.8654 1.9295 17.7492 2.39444 17.4661 2.77032L13.9281 7.5Z" fill="#F35A05"/>
<path d="M7.47913 14.9961C7.76674 14.9961 8.04236 14.9961 8.32998 14.9961C11.0667 14.7157 13.5908 13.5255 15.4124 11.6563C15.5238 11.5513 15.5859 11.4114 15.5859 11.2659C15.5859 11.1204 15.5238 10.9806 15.4124 10.8756C15.2979 10.7723 15.1427 10.7143 14.981 10.7143C14.8193 10.7143 14.6642 10.7723 14.5496 10.8756C12.9325 12.538 10.69 13.597 8.25808 13.8467C7.34332 13.9904 6.40246 13.9024 5.53955 13.5923C4.67663 13.2823 3.9253 12.7624 3.36866 12.09C3.32726 12.0243 3.27142 11.967 3.20458 11.9216C3.13774 11.8762 3.06132 11.8437 2.98005 11.8261C2.89877 11.8085 2.81438 11.8062 2.73207 11.8193C2.64976 11.8323 2.57127 11.8605 2.50149 11.9021C2.4317 11.9437 2.37209 11.9979 2.32633 12.0611C2.28056 12.1244 2.24964 12.1955 2.23544 12.27C2.22125 12.3445 2.22409 12.4209 2.2438 12.4944C2.26351 12.5679 2.29967 12.6369 2.35004 12.6973C2.92517 13.4372 3.69575 14.0351 4.5916 14.4366C5.48746 14.8382 6.48012 15.0305 7.47913 14.9961V14.9961Z" fill="#07040C"/>
</svg>

<svg xmlns="http://www.w3.org/2000/svg" width="18" height="15" fill="none"><path fill="#F35A05" d="M3.909 7.5.346 2.77a1.69 1.69 0 0 1-.324-1.296C.098 1.02.358.61.75.332c.192-.134.41-.23.643-.284a1.895 1.895 0 0 1 1.374.21c.202.12.377.277.514.461l.615.82.618-.82c.137-.184.312-.341.514-.461a1.895 1.895 0 0 1 1.374-.21c.232.053.45.15.643.284.39.277.651.687.727 1.142a1.69 1.69 0 0 1-.324 1.296L3.909 7.5ZM13.928 7.5l-3.562-4.73a1.69 1.69 0 0 1-.324-1.296c.075-.455.336-.865.727-1.142.192-.134.41-.23.643-.284a1.895 1.895 0 0 1 1.373.21c.203.12.378.277.514.461l.616.82.618-.82c.136-.184.311-.341.514-.461a1.895 1.895 0 0 1 1.374-.21c.232.053.45.15.642.284.391.277.652.687.727 1.142.075.456-.04.92-.324 1.296L13.928 7.5Z"/><path fill="#07040C" d="M7.48 14.996h.85c2.737-.28 5.26-1.47 7.082-3.34a.537.537 0 0 0 .174-.39.536.536 0 0 0-.174-.39.645.645 0 0 0-.431-.162.645.645 0 0 0-.431.162c-1.618 1.662-3.86 2.721-6.292 2.97a5.527 5.527 0 0 1-2.718-.254 5.007 5.007 0 0 1-2.171-1.502.575.575 0 0 0-.164-.168.674.674 0 0 0-.703-.02.586.586 0 0 0-.176.16.502.502 0 0 0 .024.636 5.87 5.87 0 0 0 2.242 1.739 6.525 6.525 0 0 0 2.887.56Z"/></svg>
